assets/sonr-icons/check-badge.svg

<svg xmlns="http://www.w3.org/2000/svg" width="24" height="24" fill="none" viewBox="0 0 24 24"><path fill="#000" d="M13.571 5.419C14.029 6.024 14.778 6.334 15.531 6.231L16.809 6.055C17.465 5.965 18.026 6.526 17.936 7.182L17.76 8.46C17.656 9.212 17.967 9.961 18.571 10.42L19.599 11.199C20.127 11.6 20.127 12.392 19.599 12.793L18.571 13.572C17.967 14.03 17.656 14.779 17.76 15.532L17.936 16.81C18.026 17.466 17.465 18.027 16.809 17.937L15.531 17.762C14.779 17.658 14.03 17.969 13.571 18.573L12.792 19.6C12.392 20.128 11.599 20.128 11.198 19.6L10.419 18.573C9.96098 17.968 9.21198 17.658 8.45898 17.762L7.18098 17.937C6.52498 18.027 5.96398 17.466 6.05398 16.81L6.22998 15.532C6.33298 14.781 6.02298 14.031 5.41798 13.572L4.39098 12.793C3.86298 12.393 3.86298 11.6 4.39098 11.199L5.41798 10.42C6.02198 9.962 6.33298 9.213 6.22998 8.461L6.05398 7.183C5.96398 6.527 6.52498 5.966 7.18098 6.056L8.45898 6.232C9.21098 6.335 9.95998 6.025 10.419 5.421L11.198 4.394C11.598 3.866 12.391 3.866 12.792 4.394L13.571 5.421V5.419ZM14.386 3.182C13.185 1.599 10.805 1.599 9.60498 3.182L8.82598 4.209C8.80398 4.238 8.76798 4.252 8.73298 4.248L7.45498 4.073C5.48698 3.802 3.80398 5.485 4.07398 7.454L4.24898 8.732C4.25398 8.768 4.23898 8.803 4.20998 8.825L3.18298 9.604C1.59998 10.805 1.59998 13.184 3.18298 14.385L4.20998 15.164C4.23898 15.186 4.25298 15.222 4.24898 15.257L4.07398 16.535C3.80298 18.504 5.48598 20.186 7.45498 19.916L8.73298 19.74C8.76898 19.735 8.80398 19.75 8.82598 19.778L9.60498 20.805C10.806 22.388 13.186 22.388 14.386 20.805L15.165 19.778C15.187 19.749 15.223 19.734 15.258 19.74L16.536 19.916C18.504 20.187 20.187 18.504 19.916 16.535L19.741 15.257C19.736 15.221 19.751 15.186 19.78 15.164L20.807 14.385C22.39 13.184 22.39 10.804 20.807 9.604L19.78 8.825C19.751 8.803 19.736 8.767 19.741 8.732L19.916 7.454C20.187 5.486 18.504 3.803 16.536 4.073L15.258 4.248C15.222 4.253 15.187 4.238 15.165 4.209L14.386 3.182Z"/><path fill="#000" d="M15.707 9.29303C16.098 9.68403 16.098 10.317 15.707 10.707L11.707 14.707C11.316 15.098 10.683 15.098 10.292 14.707L8.29203 12.707C7.90103 12.316 7.90103 11.683 8.29203 11.292C8.68303 10.901 9.31603 10.901 9.70703 11.292L11 12.585L14.293 9.29203C14.684 8.90103 15.317 8.90103 15.707 9.29203V9.29303Z"/></svg>

<svg xmlns="http://www.w3.org/2000/svg" width="24" height="24" fill="none"><path fill="currentColor" d="M13.571 5.419a2.1 2.1 0 0 0 1.96.812l1.278-.176a1 1 0 0 1 1.127 1.127L17.76 8.46a2.1 2.1 0 0 0 .811 1.96l1.028.779a1 1 0 0 1 0 1.594l-1.028.779a2.1 2.1 0 0 0-.811 1.96l.176 1.278a1 1 0 0 1-1.127 1.127l-1.278-.175a2.1 2.1 0 0 0-1.96.811l-.779 1.027a1 1 0 0 1-1.594 0l-.779-1.027a2.1 2.1 0 0 0-1.96-.811l-1.278.175a1 1 0 0 1-1.127-1.127l.176-1.278a2.1 2.1 0 0 0-.812-1.96l-1.027-.779a1 1 0 0 1 0-1.594l1.027-.779a2.1 2.1 0 0 0 .812-1.959l-.176-1.278a1 1 0 0 1 1.127-1.127l1.278.176a2.1 2.1 0 0 0 1.96-.811l.779-1.027a1 1 0 0 1 1.594 0l.779 1.027zm.815-2.237a3 3 0 0 0-4.781 0l-.779 1.027a.1.1 0 0 1-.093.039l-1.278-.175a3 3 0 0 0-3.381 3.381l.175 1.278a.1.1 0 0 1-.039.093l-1.027.779a3 3 0 0 0 0 4.781l1.027.779a.1.1 0 0 1 .039.093l-.175 1.278a3 3 0 0 0 3.381 3.381l1.278-.176a.1.1 0 0 1 .093.038l.779 1.027a3 3 0 0 0 4.781 0l.779-1.027a.1.1 0 0 1 .093-.038l1.278.176a3 3 0 0 0 3.38-3.381l-.175-1.278a.1.1 0 0 1 .039-.093l1.027-.779a3 3 0 0 0 0-4.781l-1.027-.779a.1.1 0 0 1-.039-.093l.175-1.278a3 3 0 0 0-3.38-3.381l-1.278.175a.1.1 0 0 1-.093-.039z"/><path fill="currentColor" d="M15.707 9.293a1 1 0 0 1 0 1.414l-4 4a1 1 0 0 1-1.415 0l-2-2a1 1 0 1 1 1.415-1.415L11 12.585l3.293-3.293a1 1 0 0 1 1.414 0z"/></svg>
